chrome/icons/remove-from.svg

<svg height="16" viewBox="0 0 960 960" width="16" xmlns="http://www.w3.org/2000/svg" xmlns:xlink="http://www.w3.org/1999/xlink">
  <path d="M0,480C0,435.667 5.66667,393.083 17,352.25C28.3333,311.417 44.4167,273.167 65.25,237.5C86.0833,201.833 111.083,169.417 140.25,140.25C169.417,111.083 201.833,86.0834 237.5,65.25C273.167,44.4167 311.417,28.3334 352.25,17C393.083,5.66669 435.667,0 480,0C524,0 566.417,5.75 607.25,17.25C648.083,28.75 686.333,44.9167 722,65.75C757.667,86.5834 790.083,111.583 819.25,140.75C848.417,169.917 873.417,202.333 894.25,238C915.083,273.667 931.25,311.917 942.75,352.75C954.25,393.583 960,436 960,480C960,524.333 954.333,566.917 943,607.75C931.667,648.583 915.583,686.833 894.75,722.5C873.917,758.167 848.917,790.583 819.75,819.75C790.583,848.917 758.167,873.917 722.5,894.75C686.833,915.583 648.583,931.667 607.75,943C566.917,954.333 524.333,960 480,960C435.667,960 393,954.333 352,943C311,931.667 272.75,915.583 237.25,894.75C201.75,873.917 169.417,848.917 140.25,819.75C111.083,790.583 86.0833,758.25 65.25,722.75C44.4167,687.25 28.3333,649 17,608C5.66667,567 0,524.333 0,480ZM896,480C896,441.667 891.083,404.75 881.25,369.25C871.417,333.75 857.417,300.583 839.25,269.75C821.083,238.917 799.417,210.917 774.25,185.75C749.083,160.583 721.083,138.917 690.25,120.75C659.417,102.583 626.25,88.5834 590.75,78.75C555.25,68.9167 518.333,64.0001 480,64C441.667,64.0001 404.75,68.9167 369.25,78.75C333.75,88.5834 300.583,102.583 269.75,120.75C238.917,138.917 210.917,160.583 185.75,185.75C160.583,210.917 138.917,238.917 120.75,269.75C102.583,300.583 88.5833,333.75 78.75,369.25C68.9167,404.75 64,441.667 64,480C64,518.333 68.9167,555.25 78.75,590.75C88.5833,626.25 102.5,659.417 120.5,690.25C138.5,721.083 160.167,749.167 185.5,774.5C210.833,799.833 238.917,821.5 269.75,839.5C300.583,857.5 333.75,871.417 369.25,881.25C404.75,891.083 441.667,896 480,896C518.333,896 555.25,891.083 590.75,881.25C626.25,871.417 659.417,857.417 690.25,839.25C721.083,821.083 749.083,799.417 774.25,774.25C799.417,749.083 821.083,721.083 839.25,690.25C857.417,659.417 871.417,626.25 881.25,590.75C891.083,555.25 896,518.333 896,480ZM288,512C279.333,512 271.833,508.833 265.5,502.5C259.167,496.167 256,488.667 256,480C256,471.333 259.167,463.833 265.5,457.5C271.833,451.167 279.333,448 288,448L672,448C680.667,448 688.167,451.167 694.5,457.5C700.833,463.833 704,471.333 704,480C704,488.667 700.833,496.167 694.5,502.5C688.167,508.833 680.667,512 672,512Z" fill="context-fill" fill-opacity="context-fill-opacity">
  </path>
</svg>

<svg xmlns="http://www.w3.org/2000/svg" width="16" height="16" viewBox="0 0 960 960"><path fill="context-fill" fill-opacity="context-fill-opacity" d="M0 480q0-66.5 17-127.75T65.25 237.5t75-97.25 97.25-75T352.25 17 480 0q66 0 127.25 17.25T722 65.75t97.25 75 75 97.25 48.5 114.75T960 480q0 66.5-17 127.75T894.75 722.5t-75 97.25-97.25 75T607.75 943 480 960t-128-17-114.75-48.25-97-75-75-97T17 608 0 480m896 0q0-57.5-14.75-110.75t-42-99.5-65-84-84-65-99.5-42T480 64 369.25 78.75t-99.5 42-84 65-65 84-42 99.5T64 480t14.75 110.75 41.75 99.5 65 84.25 84.25 65 99.5 41.75T480 896t110.75-14.75 99.5-42 84-65 65-84 42-99.5T896 480m-608 32q-13 0-22.5-9.5T256 480t9.5-22.5T288 448h384q13 0 22.5 9.5T704 480t-9.5 22.5T672 512Z"/></svg>
